X: 241
T:Pop Goes the Wheezle
% Nottingham Music Database
S:Trad, via EF
M:6/8
K:G
P:A
D|"G"G2B "D7"A2c|"G"BdB "D7"G2D|"G"G2B "D7"ABc|"G"B3 "D7"G2D|"G"G2B "D7"A2c|
"G"BdB G3|"C"e3 "D7"A2c|"G"B3 G3|"Em"g2f e2g|"D"faf d3|
"Em"g2f efg|"Bm"f3 d3|"C"c2B c2d|"C"e2f g3|"G"g3 "D7"A2c|"G"B3 G2:|<end>
<start>
